X: 1507
T: Mollie McCarthy
T: maire ni .mic car.tai.g.
R: reel
%S: s:3 b:12(4+4+4)
B: O'Neill's "Music of Ireland" 1850 #1507
O: Kennedy
Z: transcribed by John B. Walsh, walsh@math.ubc.ca 8/23/96
M: C|
L: 1/8
K: D
"^A"\
e: DAFA DAFA | DAFA (GE)E2 | DAFA DFAF | dBAG (FD)D2 :|
"^B"\
[| afdf gfed | gefd (Be)e2 | afdf gfed | (fa)eg (fd)d2 ||
|| afdf gfed | gefd (Be)e2 | af{a}ge fdec | dBAG FDD2 |]
